X: 7
T:Valse a Guilleman
M:3/4
L:1/4
R:Waltz
Z:Steve Mansfield
K:C
Gce | g2 ^f/g/ | age | c3 | Gce | e2d/e/
|1 fBd | d>cB/A/ :|2 eBd | c3 |:[L:1/8] efecGc |
efecGc | dedBGB | dedBGB | efecGc | efecGc | dedBGB | c6:|
<end>
<start>
